!!!SOCIAL_FUNCTION: tick dance songs
!!!PDT:	1943
!!!LING_GROUP: Muskogean
!!!LANG: Non-Tone
Specific Region: Oklahoma, California, Mississippi, Louisiana, Texas, Alabama
!!!REG: Southeast
!!!COM: Anon.
!!!OTL: Tick Dance Song (e)
!!!ODT: <1933//
!!!MPN: Lysander Tubby
!!!MLC: Philadelphia, Mississippi, United States of America
!! Song was recorded in January 1933.
!!!AGN: monody
!!!AMT: simple triple
!!!RWG: Transcribed pitches, durations, and meters are only approximate.
**kern
*ICvox
*Imale
*clefF4
*k[b-e-a-]
*M3/4
*MM80
=1-
4A-
4A-
8A-
8F
=2
4B-
8B-
8A-
8G
8E-
=3
4F
8F
8E-
8E-
8r
=4
8E-
8E-
4E-
4E-
=5
4F
8F
8E-
8E-
8r
=6
8E-
8E-
4E-
8E-
8BB-
=7
8E-
8E-
8F
8E-
8E-
8r
=8
8E-
8E-
4E-
8E-
8r
=9
4e-
8e-
8B-
4B-
=10
4B-
8B-
8A-
8G
8E-
=11
4F
8F
8E-
8E-
8r
=12
8E-
8E-
4E-
4E-
=13
4F
8F
8E-
8E-
8r
=14
4E-
8E-
8E-
8E-
8BB-
=15
8E-
8E-
8E-
8E-
8E-
8r
=16
8E-
8E-
8E-
8E-
8E-
8E-
=17
4A-
8F
8E-
4F
=18
4B-
8B-
8A-
8G
8E-
=19
4F
8F
8E-
8E-
8r
=20
8E-
8E-
8E-
8E-
4E-
=21
4F
8F
8E-
8E-
8r
=22
8E-
8E-
4E-
8E-
8BB-
=23
8E-
8E-
8E-
8E-
8E-
8r
=24
8E-
8E-
8E-
8E-
4E-
=25
4A-
8F
8E-
4F
=26
4B-
8B-
8A-
8G
8E-
=27
4F
8F
8E-
8E-
8r
=28
8E-
8E-
8E-
8E-
4E-
=29
4F
8F
8E-
8E-
8r
=30
8E-
8E-
4E-
8E-
8BB-
=31
8E-
8E-
8E-
8E-
8E-
8r
=32
8E-
8E-
8E-
8E-
4E-
==
*-
!!!CNT: Choctaw
!!!TXO: Choctaw
!!!OCY: United States
!!!OCL: Frances Densmore
!!!YOR: Frances Densmore, "Choctaw Music"
!!!YOR: Bulletin 136, page 140, No. 14
!!!PPR: Smithsonian Institution, Bureau of American Ethnology
!!!PPR: Government Printing Office
!!!PDT: 1943
!!!PPP: Washington, DC, United States of America
!!!YEC: Electronic Copyright 2000 David Huron
!!!YER: August 2000
!!!YEN: United States of America
!!!ENC: David Huron
!!!RDT: August 27, 2000
!!!EEV: Release 1.0
!!!AIN: vox
